X:375
T: Chase Me Charlie
S: "Music of Ireland - The Big Session" (DJ Taylor)
Z: B.Black
N: close relative of "Cock of the North"
L: 1/8
M: 12/8
R: slide
K: G
A|B3 BAB GBd e2 g|ABB B2 G A2 A AGA|\
B3 BAB GBd e2 g|BdB ABA G3-G2 :|
d|g2 d e2 d g2 d e2 d|ABB B2 G ABA A2 d|\
g2 d e2 d g2 d e2 d|BdB ABA G3-G2 :|
